poi/svg/1901.svg

<?xml version="1.0" encoding="UTF-8" standalone="no"?>
<svg
   xmlns:dc="http://purl.org/dc/elements/1.1/"
   xmlns:cc="http://creativecommons.org/ns#"
   xmlns:rdf="http://www.w3.org/1999/02/22-rdf-syntax-ns#"
   xmlns:svg="http://www.w3.org/2000/svg"
   xmlns="http://www.w3.org/2000/svg"
   xmlns:sodipodi="http://sodipodi.sourceforge.net/DTD/sodipodi-0.dtd"
   xmlns:inkscape="http://www.inkscape.org/namespaces/inkscape"
   inkscape:version="1.0 (4035a4fb49, 2020-05-01)"
   sodipodi:docname="1901.svg"
   id="svg20"
   version="1.2"
   viewBox="0 0 42.519639 42.519639"
   height="14.999999mm"
   width="14.999999mm">
  <metadata
     id="metadata24">
    <rdf:RDF>
      <cc:Work
         rdf:about="">
        <dc:format>image/svg+xml</dc:format>
        <dc:type
           rdf:resource="http://purl.org/dc/dcmitype/StillImage" />
        <dc:title>Qt SVG Document</dc:title>
      </cc:Work>
    </rdf:RDF>
  </metadata>
  <sodipodi:namedview
     inkscape:current-layer="svg20"
     inkscape:window-maximized="0"
     inkscape:window-y="0"
     inkscape:window-x="0"
     inkscape:cy="28.346482"
     inkscape:cx="28.346482"
     inkscape:zoom="5.8410537"
     showgrid="false"
     id="namedview22"
     inkscape:window-height="480"
     inkscape:window-width="1034"
     inkscape:pageshadow="2"
     inkscape:pageopacity="0"
     guidetolerance="10"
     gridtolerance="10"
     objecttolerance="10"
     borderopacity="1"
     bordercolor="#666666"
     pagecolor="#ffffff" />
  <title
     id="title2">Qt SVG Document</title>
  <desc
     id="desc4">Generated with Qt</desc>
  <defs
     id="defs6" />
  <g
     transform="translate(5.25984,5.25984)"
     id="g18"
     stroke-linejoin="bevel"
     stroke-linecap="square"
     fill-rule="evenodd"
     stroke-width="1"
     stroke="#000000"
     fill="none">
    <g
       id="g10"
       font-style="normal"
       font-weight="400"
       font-size="7.8px"
       font-family="'MS Shell Dlg 2'"
       stroke="none"
       fill-opacity="1"
       fill="#a61215">
      <path
         id="path8"
         d="M 37.2598,16 C 37.2598,27.7415 27.7415,37.2598 16,37.2598 4.25851,37.2598 -5.25984,27.7415 -5.25984,16 -5.25984,4.25851 4.25851,-5.25984 16,-5.25984 27.7415,-5.25984 37.2598,4.25851 37.2598,16"
         fill-rule="evenodd"
         vector-effect="non-scaling-stroke" />
    </g>
    <g
       id="g14"
       font-style="normal"
       font-weight="400"
       font-size="7.8px"
       font-family="'MS Shell Dlg 2'"
       transform="translate(16,13.1654)"
       stroke="none"
       fill-opacity="0.94902"
       fill="#ffffff">
      <path
         id="path12"
         d="M 8.05371,-6.34619 V 10.3457 h 0.12598 c 0.13997,0 0.31144,0.028 0.5144,0.084 0.20296,0.056 0.38843,0.147 0.5564,0.2729 0.16797,0.126 0.31844,0.2905 0.45141,0.4934 0.13298,0.203 0.19947,0.4655 0.19947,0.7874 v 0.21 c 0,0.4899 -0.17147,0.9063 -0.51441,1.2492 C 9.04403,13.7856 8.6416,13.957 8.17969,13.957 H 8.05371 v 4.1153 H 1.98584 v -4.2412 c 0,-0.406 -0.13647,-0.7384 -0.40942,-0.9974 C 1.30347,12.5748 0.96403,12.4453 0.558105,12.4453 H -1.45752 c -0.33594,0 -0.64038,0.1295 -0.91333,0.3884 -0.27295,0.259 -0.40942,0.5914 -0.40942,0.9974 v 4.2412 H -8.93213 V 13.957 h -0.04199 c -0.46192,0 -0.87134,-0.1714 -1.22828,-0.5144 -0.3569,-0.3429 -0.5354,-0.7593 -0.5354,-1.2492 v -0.21 c 0,-0.4899 0.1785,-0.8853 0.5354,-1.1863 0.35694,-0.3009 0.76636,-0.4514 1.22828,-0.4514 h 0.04199 V -6.34619 h -0.04199 c -0.46192,0 -0.87134,-0.16447 -1.22828,-0.49341 -0.3569,-0.32894 -0.5354,-0.73836 -0.5354,-1.22827 v -0.16797 c 0,-0.48991 0.1785,-0.89233 0.5354,-1.20728 0.35694,-0.31494 0.78036,-0.47241 1.27027,-0.47241 h 0.20996 16.90186 c 0.46191,0 0.86434,0.15747 1.20727,0.47241 0.34294,0.31495 0.51441,0.71737 0.51441,1.20728 v 0.16797 c 0,0.48991 -0.17147,0.89933 -0.51441,1.22827 -0.34293,0.32894 -0.74536,0.49341 -1.20727,0.49341 H 8.05371 M -3.26318,7.63721 c 0,-0.18197 -0.06299,-0.33594 -0.18897,-0.46192 C -3.57813,7.04932 -3.7321,6.98633 -3.91406,6.98633 h -1.65869 c -0.18197,0 -0.33594,0.06299 -0.46192,0.18896 -0.12597,0.12598 -0.18896,0.27995 -0.18896,0.46192 v 1.72168 c 0,0.16797 0.06299,0.31494 0.18896,0.44091 0.12598,0.12598 0.27995,0.18897 0.46192,0.18897 h 1.65869 c 0.18196,0 0.33593,-0.06299 0.46191,-0.18897 0.12598,-0.12597 0.18897,-0.27294 0.18897,-0.44091 V 7.63721 m 0,-4.34619 c 0,-0.16797 -0.06299,-0.31845 -0.18897,-0.45142 C -3.57813,2.70662 -3.7321,2.64014 -3.91406,2.64014 h -1.65869 c -0.18197,0 -0.33594,0.06648 -0.46192,0.19946 -0.12597,0.13297 -0.18896,0.28345 -0.18896,0.45142 V 5.0127 c 0,0.16796 0.06299,0.32543 0.18896,0.47241 0.12598,0.14697 0.27995,0.22046 0.46192,0.22046 h 1.65869 c 0.18196,0 0.33593,-0.07349 0.46191,-0.22046 0.12598,-0.14698 0.18897,-0.30445 0.18897,-0.47241 V 3.29102 m 0,-4.3042 c 0,-0.19597 -0.06299,-0.36044 -0.18897,-0.49341 -0.12598,-0.13298 -0.27995,-0.19946 -0.46191,-0.19946 h -1.65869 c -0.18197,0 -0.33594,0.06648 -0.46192,0.19946 -0.12597,0.13297 -0.18896,0.29744 -0.18896,0.49341 v 1.679684 c 0,0.195963 0.06299,0.360436 0.18896,0.493406 0.12598,0.13298 0.27995,0.19947 0.46192,0.19947 h 1.65869 c 0.18196,0 0.33593,-0.06649 0.46191,-0.19947 0.12598,-0.13297 0.18897,-0.297443 0.18897,-0.493406 V -1.01318 m 0,-4.3462 c 0,-0.19596 -0.06299,-0.36043 -0.18897,-0.4934 -0.12598,-0.13298 -0.27995,-0.19947 -0.46191,-0.19947 h -1.65869 c -0.18197,0 -0.33594,0.06649 -0.46192,0.19947 -0.12597,0.13297 -0.18896,0.29744 -0.18896,0.4934 v 1.67969 c 0,0.19597 0.06299,0.36044 0.18896,0.49341 0.12598,0.13298 0.27995,0.19946 0.46192,0.19946 h 1.65869 c 0.18196,0 0.33593,-0.06648 0.46191,-0.19946 0.12598,-0.13297 0.18897,-0.29744 0.18897,-0.49341 V -5.35938 M 1.08301,7.63721 C 1.08301,7.45524 1.02002,7.30127 0.894043,7.17529 0.768066,7.04932 0.614095,6.98633 0.432129,6.98633 H -1.24756 c -0.16797,0 -0.31494,0.06299 -0.44092,0.18896 -0.12597,0.12598 -0.18896,0.27995 -0.18896,0.46192 v 1.72168 c 0,0.16797 0.06299,0.31494 0.18896,0.44091 0.12598,0.12598 0.27295,0.18897 0.44092,0.18897 h 1.679689 c 0.181966,0 0.335937,-0.06299 0.461914,-0.18897 C 1.02002,9.67383 1.08301,9.52686 1.08301,9.35889 V 7.63721 m 0,-4.34619 C 1.08301,3.12305 1.02002,2.97257 0.894043,2.8396 0.768066,2.70662 0.614095,2.64014 0.432129,2.64014 H -1.24756 c -0.16797,0 -0.31494,0.06648 -0.44092,0.19946 -0.12597,0.13297 -0.18896,0.28345 -0.18896,0.45142 V 5.0127 c 0,0.16796 0.06299,0.32543 0.18896,0.47241 0.12598,0.14697 0.27295,0.22046 0.44092,0.22046 h 1.679689 c 0.181966,0 0.335937,-0.07349 0.461914,-0.22046 C 1.02002,5.33813 1.08301,5.18066 1.08301,5.0127 V 3.29102 m 0,-4.3042 c 0,-0.19597 -0.06299,-0.36044 -0.188967,-0.49341 C 0.768066,-1.63957 0.614095,-1.70605 0.432129,-1.70605 H -1.24756 c -0.16797,0 -0.31494,0.06648 -0.44092,0.19946 -0.12597,0.13297 -0.18896,0.29744 -0.18896,0.49341 v 1.679684 c 0,0.195963 0.06299,0.360436 0.18896,0.493406 0.12598,0.13298 0.27295,0.19947 0.44092,0.19947 h 1.679689 c 0.181966,0 0.335937,-0.06649 0.461914,-0.19947 C 1.02002,1.02694 1.08301,0.862467 1.08301,0.666504 V -1.01318 m 0,-4.3462 c 0,-0.19596 -0.06299,-0.36043 -0.188967,-0.4934 C 0.768066,-5.98576 0.614095,-6.05225 0.432129,-6.05225 H -1.24756 c -0.16797,0 -0.31494,0.06649 -0.44092,0.19947 -0.12597,0.13297 -0.18896,0.29744 -0.18896,0.4934 v 1.67969 c 0,0.19597 0.06299,0.36044 0.18896,0.49341 0.12598,0.13298 0.27295,0.19946 0.44092,0.19946 h 1.679689 c 0.181966,0 0.335937,-0.06648 0.461914,-0.19946 C 1.02002,-3.31925 1.08301,-3.48372 1.08301,-3.67969 V -5.35938 M 5.4292,7.63721 C 5.4292,7.45524 5.36271,7.30127 5.22974,7.17529 5.09676,7.04932 4.93229,6.98633 4.73633,6.98633 h -1.6377 c -0.16797,0 -0.32544,0.06299 -0.47241,0.18896 C 2.47925,7.30127 2.40576,7.45524 2.40576,7.63721 v 1.72168 c 0,0.16797 0.07349,0.31494 0.22046,0.44091 0.14697,0.12598 0.30444,0.18897 0.47241,0.18897 h 1.6377 c 0.19596,0 0.36043,-0.06299 0.49341,-0.18897 C 5.36271,9.67383 5.4292,9.52686 5.4292,9.35889 V 7.63721 m 0,-4.34619 C 5.4292,3.12305 5.36271,2.97257 5.22974,2.8396 5.09676,2.70662 4.93229,2.64014 4.73633,2.64014 H 3.09863 C 2.93066,2.64014 2.77319,2.70662 2.62622,2.8396 2.47925,2.97257 2.40576,3.12305 2.40576,3.29102 V 5.0127 c 0,0.16796 0.07349,0.32543 0.22046,0.47241 0.14697,0.14697 0.30444,0.22046 0.47241,0.22046 h 1.6377 c 0.19596,0 0.36043,-0.07349 0.49341,-0.22046 C 5.36271,5.33813 5.4292,5.18066 5.4292,5.0127 V 3.29102 m 0,-4.3042 c 0,-0.46192 -0.23096,-0.69287 -0.69287,-0.69287 h -1.6377 c -0.16797,0 -0.32544,0.06648 -0.47241,0.19946 -0.14697,0.13297 -0.22046,0.29744 -0.22046,0.49341 v 1.679684 c 0,0.195963 0.07349,0.360436 0.22046,0.493406 0.14697,0.13298 0.30444,0.19947 0.47241,0.19947 h 1.6377 c 0.46191,0 0.69287,-0.23096 0.69287,-0.692876 V -1.01318 m 0,-4.3462 c 0,-0.46191 -0.23096,-0.69287 -0.69287,-0.69287 h -1.6377 c -0.16797,0 -0.32544,0.06649 -0.47241,0.19947 -0.14697,0.13297 -0.22046,0.29744 -0.22046,0.4934 v 1.67969 c 0,0.19597 0.07349,0.36044 0.22046,0.49341 0.14697,0.13298 0.30444,0.19946 0.47241,0.19946 h 1.6377 c 0.46191,0 0.69287,-0.23095 0.69287,-0.69287 v -1.67969"
         fill-rule="evenodd"
         vector-effect="none" />
    </g>
    <g
       id="g16"
       font-style="normal"
       font-weight="400"
       font-size="7.8px"
       font-family="'MS Shell Dlg 2'"
       stroke="none"
       fill-opacity="1"
       fill="#a61215" />
  </g>
</svg>

<?xml version="1.0" encoding="UTF-8" standalone="no"?>
<svg width="11.2889mm" height="11.2889mm"
 viewBox="0 0 32 32"
 xmlns="http://www.w3.org/2000/svg" xmlns:xlink="http://www.w3.org/1999/xlink"  version="1.2" baseProfile="tiny">
<title>Qt SVG Document</title>
<desc>Generated with Qt</desc>
<defs>
</defs>
<g fill="none" stroke="black" stroke-width="1" fill-rule="evenodd" stroke-linecap="square" stroke-linejoin="bevel" >

<g fill="#a61215" fill-opacity="1" stroke="none" transform="matrix(1,0,0,1,0,0)"
font-family="MS Shell Dlg 2" font-size="7.8" font-weight="400" font-style="normal" 
>
<path vector-effect="non-scaling-stroke" fill-rule="evenodd" d="M37.2598,16 C37.2598,27.7415 27.7415,37.2598 16,37.2598 C4.25851,37.2598 -5.25984,27.7415 -5.25984,16 C-5.25984,4.25851 4.25851,-5.25984 16,-5.25984 C27.7415,-5.25984 37.2598,4.25851 37.2598,16 "/>
</g>

<g fill="#ffffff" fill-opacity="0.94902" stroke="none" transform="matrix(1,0,0,1,16,13.1654)"
font-family="MS Shell Dlg 2" font-size="7.8" font-weight="400" font-style="normal" 
>
<path vector-effect="none" fill-rule="evenodd" d="M8.05371,-6.34619 L8.05371,10.3457 L8.17969,10.3457 C8.31966,10.3457 8.49113,10.3737 8.69409,10.4297 C8.89705,10.4857 9.08252,10.5767 9.25049,10.7026 C9.41846,10.8286 9.56893,10.9931 9.7019,11.196 C9.83488,11.399 9.90137,11.6615 9.90137,11.9834 L9.90137,12.1934 C9.90137,12.6833 9.7299,13.0997 9.38696,13.4426 C9.04403,13.7856 8.6416,13.957 8.17969,13.957 L8.05371,13.957 L8.05371,18.0723 L1.98584,18.0723 L1.98584,13.8311 C1.98584,13.4251 1.84937,13.0927 1.57642,12.8337 C1.30347,12.5748 0.96403,12.4453 0.558105,12.4453 L-1.45752,12.4453 C-1.79346,12.4453 -2.0979,12.5748 -2.37085,12.8337 C-2.6438,13.0927 -2.78027,13.4251 -2.78027,13.8311 L-2.78027,18.0723 L-8.93213,18.0723 L-8.93213,13.957 L-8.97412,13.957 C-9.43604,13.957 -9.84546,13.7856 -10.2024,13.4426 C-10.5593,13.0997 -10.7378,12.6833 -10.7378,12.1934 L-10.7378,11.9834 C-10.7378,11.4935 -10.5593,11.0981 -10.2024,10.7971 C-9.84546,10.4962 -9.43604,10.3457 -8.97412,10.3457 L-8.93213,10.3457 L-8.93213,-6.34619 L-8.97412,-6.34619 C-9.43604,-6.34619 -9.84546,-6.51066 -10.2024,-6.8396 C-10.5593,-7.16854 -10.7378,-7.57796 -10.7378,-8.06787 L-10.7378,-8.23584 C-10.7378,-8.72575 -10.5593,-9.12817 -10.2024,-9.44312 C-9.84546,-9.75806 -9.42204,-9.91553 -8.93213,-9.91553 L-8.72217,-9.91553 L8.17969,-9.91553 C8.6416,-9.91553 9.04403,-9.75806 9.38696,-9.44312 C9.7299,-9.12817 9.90137,-8.72575 9.90137,-8.23584 L9.90137,-8.06787 C9.90137,-7.57796 9.7299,-7.16854 9.38696,-6.8396 C9.04403,-6.51066 8.6416,-6.34619 8.17969,-6.34619 L8.05371,-6.34619 M-3.26318,7.63721 C-3.26318,7.45524 -3.32617,7.30127 -3.45215,7.17529 C-3.57813,7.04932 -3.7321,6.98633 -3.91406,6.98633 L-5.57275,6.98633 C-5.75472,6.98633 -5.90869,7.04932 -6.03467,7.17529 C-6.16064,7.30127 -6.22363,7.45524 -6.22363,7.63721 L-6.22363,9.35889 C-6.22363,9.52686 -6.16064,9.67383 -6.03467,9.7998 C-5.90869,9.92578 -5.75472,9.98877 -5.57275,9.98877 L-3.91406,9.98877 C-3.7321,9.98877 -3.57813,9.92578 -3.45215,9.7998 C-3.32617,9.67383 -3.26318,9.52686 -3.26318,9.35889 L-3.26318,7.63721 M-3.26318,3.29102 C-3.26318,3.12305 -3.32617,2.97257 -3.45215,2.8396 C-3.57813,2.70662 -3.7321,2.64014 -3.91406,2.64014 L-5.57275,2.64014 C-5.75472,2.64014 -5.90869,2.70662 -6.03467,2.8396 C-6.16064,2.97257 -6.22363,3.12305 -6.22363,3.29102 L-6.22363,5.0127 C-6.22363,5.18066 -6.16064,5.33813 -6.03467,5.48511 C-5.90869,5.63208 -5.75472,5.70557 -5.57275,5.70557 L-3.91406,5.70557 C-3.7321,5.70557 -3.57813,5.63208 -3.45215,5.48511 C-3.32617,5.33813 -3.26318,5.18066 -3.26318,5.0127 L-3.26318,3.29102 M-3.26318,-1.01318 C-3.26318,-1.20915 -3.32617,-1.37362 -3.45215,-1.50659 C-3.57813,-1.63957 -3.7321,-1.70605 -3.91406,-1.70605 L-5.57275,-1.70605 C-5.75472,-1.70605 -5.90869,-1.63957 -6.03467,-1.50659 C-6.16064,-1.37362 -6.22363,-1.20915 -6.22363,-1.01318 L-6.22363,0.666504 C-6.22363,0.862467 -6.16064,1.02694 -6.03467,1.15991 C-5.90869,1.29289 -5.75472,1.35938 -5.57275,1.35938 L-3.91406,1.35938 C-3.7321,1.35938 -3.57813,1.29289 -3.45215,1.15991 C-3.32617,1.02694 -3.26318,0.862467 -3.26318,0.666504 L-3.26318,-1.01318 M-3.26318,-5.35938 C-3.26318,-5.55534 -3.32617,-5.71981 -3.45215,-5.85278 C-3.57813,-5.98576 -3.7321,-6.05225 -3.91406,-6.05225 L-5.57275,-6.05225 C-5.75472,-6.05225 -5.90869,-5.98576 -6.03467,-5.85278 C-6.16064,-5.71981 -6.22363,-5.55534 -6.22363,-5.35938 L-6.22363,-3.67969 C-6.22363,-3.48372 -6.16064,-3.31925 -6.03467,-3.18628 C-5.90869,-3.0533 -5.75472,-2.98682 -5.57275,-2.98682 L-3.91406,-2.98682 C-3.7321,-2.98682 -3.57813,-3.0533 -3.45215,-3.18628 C-3.32617,-3.31925 -3.26318,-3.48372 -3.26318,-3.67969 L-3.26318,-5.35938 M1.08301,7.63721 C1.08301,7.45524 1.02002,7.30127 0.894043,7.17529 C0.768066,7.04932 0.614095,6.98633 0.432129,6.98633 L-1.24756,6.98633 C-1.41553,6.98633 -1.5625,7.04932 -1.68848,7.17529 C-1.81445,7.30127 -1.87744,7.45524 -1.87744,7.63721 L-1.87744,9.35889 C-1.87744,9.52686 -1.81445,9.67383 -1.68848,9.7998 C-1.5625,9.92578 -1.41553,9.98877 -1.24756,9.98877 L0.432129,9.98877 C0.614095,9.98877 0.768066,9.92578 0.894043,9.7998 C1.02002,9.67383 1.08301,9.52686 1.08301,9.35889 L1.08301,7.63721 M1.08301,3.29102 C1.08301,3.12305 1.02002,2.97257 0.894043,2.8396 C0.768066,2.70662 0.614095,2.64014 0.432129,2.64014 L-1.24756,2.64014 C-1.41553,2.64014 -1.5625,2.70662 -1.68848,2.8396 C-1.81445,2.97257 -1.87744,3.12305 -1.87744,3.29102 L-1.87744,5.0127 C-1.87744,5.18066 -1.81445,5.33813 -1.68848,5.48511 C-1.5625,5.63208 -1.41553,5.70557 -1.24756,5.70557 L0.432129,5.70557 C0.614095,5.70557 0.768066,5.63208 0.894043,5.48511 C1.02002,5.33813 1.08301,5.18066 1.08301,5.0127 L1.08301,3.29102 M1.08301,-1.01318 C1.08301,-1.20915 1.02002,-1.37362 0.894043,-1.50659 C0.768066,-1.63957 0.614095,-1.70605 0.432129,-1.70605 L-1.24756,-1.70605 C-1.41553,-1.70605 -1.5625,-1.63957 -1.68848,-1.50659 C-1.81445,-1.37362 -1.87744,-1.20915 -1.87744,-1.01318 L-1.87744,0.666504 C-1.87744,0.862467 -1.81445,1.02694 -1.68848,1.15991 C-1.5625,1.29289 -1.41553,1.35938 -1.24756,1.35938 L0.432129,1.35938 C0.614095,1.35938 0.768066,1.29289 0.894043,1.15991 C1.02002,1.02694 1.08301,0.862467 1.08301,0.666504 L1.08301,-1.01318 M1.08301,-5.35938 C1.08301,-5.55534 1.02002,-5.71981 0.894043,-5.85278 C0.768066,-5.98576 0.614095,-6.05225 0.432129,-6.05225 L-1.24756,-6.05225 C-1.41553,-6.05225 -1.5625,-5.98576 -1.68848,-5.85278 C-1.81445,-5.71981 -1.87744,-5.55534 -1.87744,-5.35938 L-1.87744,-3.67969 C-1.87744,-3.48372 -1.81445,-3.31925 -1.68848,-3.18628 C-1.5625,-3.0533 -1.41553,-2.98682 -1.24756,-2.98682 L0.432129,-2.98682 C0.614095,-2.98682 0.768066,-3.0533 0.894043,-3.18628 C1.02002,-3.31925 1.08301,-3.48372 1.08301,-3.67969 L1.08301,-5.35938 M5.4292,7.63721 C5.4292,7.45524 5.36271,7.30127 5.22974,7.17529 C5.09676,7.04932 4.93229,6.98633 4.73633,6.98633 L3.09863,6.98633 C2.93066,6.98633 2.77319,7.04932 2.62622,7.17529 C2.47925,7.30127 2.40576,7.45524 2.40576,7.63721 L2.40576,9.35889 C2.40576,9.52686 2.47925,9.67383 2.62622,9.7998 C2.77319,9.92578 2.93066,9.98877 3.09863,9.98877 L4.73633,9.98877 C4.93229,9.98877 5.09676,9.92578 5.22974,9.7998 C5.36271,9.67383 5.4292,9.52686 5.4292,9.35889 L5.4292,7.63721 M5.4292,3.29102 C5.4292,3.12305 5.36271,2.97257 5.22974,2.8396 C5.09676,2.70662 4.93229,2.64014 4.73633,2.64014 L3.09863,2.64014 C2.93066,2.64014 2.77319,2.70662 2.62622,2.8396 C2.47925,2.97257 2.40576,3.12305 2.40576,3.29102 L2.40576,5.0127 C2.40576,5.18066 2.47925,5.33813 2.62622,5.48511 C2.77319,5.63208 2.93066,5.70557 3.09863,5.70557 L4.73633,5.70557 C4.93229,5.70557 5.09676,5.63208 5.22974,5.48511 C5.36271,5.33813 5.4292,5.18066 5.4292,5.0127 L5.4292,3.29102 M5.4292,-1.01318 C5.4292,-1.4751 5.19824,-1.70605 4.73633,-1.70605 L3.09863,-1.70605 C2.93066,-1.70605 2.77319,-1.63957 2.62622,-1.50659 C2.47925,-1.37362 2.40576,-1.20915 2.40576,-1.01318 L2.40576,0.666504 C2.40576,0.862467 2.47925,1.02694 2.62622,1.15991 C2.77319,1.29289 2.93066,1.35938 3.09863,1.35938 L4.73633,1.35938 C5.19824,1.35938 5.4292,1.12842 5.4292,0.666504 L5.4292,-1.01318 M5.4292,-5.35938 C5.4292,-5.82129 5.19824,-6.05225 4.73633,-6.05225 L3.09863,-6.05225 C2.93066,-6.05225 2.77319,-5.98576 2.62622,-5.85278 C2.47925,-5.71981 2.40576,-5.55534 2.40576,-5.35938 L2.40576,-3.67969 C2.40576,-3.48372 2.47925,-3.31925 2.62622,-3.18628 C2.77319,-3.0533 2.93066,-2.98682 3.09863,-2.98682 L4.73633,-2.98682 C5.19824,-2.98682 5.4292,-3.21777 5.4292,-3.67969 L5.4292,-5.35938"/>
</g>

<g fill="#a61215" fill-opacity="1" stroke="none" transform="matrix(1,0,0,1,0,0)"
font-family="MS Shell Dlg 2" font-size="7.8" font-weight="400" font-style="normal" 
>
</g>
</g>
</svg>
